X: 47
T:Da New Rigged Ship
M:4/4
L:1/8
Q:180
K:D
e-g|"Am"a2 a-b ag eg|a2 a-b ag ef|
"G"g2 gg "D"f-gag|f2d2d2::!
e-d|"A"cAcA "E"B2e-d|"A"cAcA "E"E2e-d|
"A"cAcA "E"B2e-d|"A"c2A2A2::!
AB|"Am"=cdec "G"Bcd.B|"Am"ABAF "Em"G-F E2|
"Am"=cdec "G"Bcd.B|1"Am"=c2A2A2:|2="Am"c2A2A4||
